X:267
T:Oak Tree
Z: id:dc-reel-247
M:C
L:1/8
K:D Major
AG|FDAD FDAD|FDAF GEFD|A,3G, A,3G,|A,G,A,B, CDEG|!
FDAD FDAD|FDAF GFED|Bdef gece|dfec d2:|!
K:B Dorian
ce|fBB2 fage|fece faed|cAeA fAed|cAea fece|!
fBB2 fage|fece faec|ABce agae|faed cA:|!
K:D Major
Bc|d2fd d2fd|c2ec c2ec|d2fd d2fg|afge dcBc|!
d2fd Adfd|c2ec Acec|d2fd Adfg|afge dB|]!

